public/images/dev23.svg

<svg width="100" height="100" viewBox="0 0 100 100" fill="none" xmlns="http://www.w3.org/2000/svg">
<path d="M3.05908 88.7059V88.6471C3.05908 82.4118 7.78567 77.2941 14.5211 77.2941C18.6568 77.2941 21.1383 78.6471 23.2062 80.7059L20.1339 84.2353C18.4205 82.7059 16.7071 81.7647 14.5211 81.7647C10.7989 81.7647 8.14016 84.8235 8.14016 88.5882V88.6471C8.14016 92.4118 10.7398 95.5294 14.5211 95.5294C17.0616 95.5294 18.5977 94.5294 20.3111 92.9412L23.3834 96.0588C21.1383 98.4706 18.5977 100 14.3438 100C7.90383 100 3.05908 95 3.05908 88.7059ZM29.7643 77.7059H34.6091V86.4118H43.5305V77.7059H48.3752V99.6471H43.5305V90.8235H34.6091V99.6471H29.7643V77.7059ZM56.1741 77.7059H73.0716V82.0588H61.0779V86.5882H71.6537V90.9412H61.0779V95.6471H73.2489V100H56.1741V77.7059ZM80.2797 77.7059H97.0591V82.1177H85.1244V86.7647H95.6411V91.1765H85.1244V99.6471H80.2797V77.7059Z" fill="#435363"/>
<path d="M50.7385 46.7647C42.7033 46.7647 36.1452 40.2353 36.1452 32.2353C36.1452 24.2353 42.7033 17.7059 50.7385 17.7059C57.3557 17.7059 62.9686 22.1176 64.741 28.1765H70.4129C68.5223 19.0588 60.428 12.2353 50.7385 12.2353C39.6901 12.2353 30.6505 21.1765 30.6505 32.2353C30.6505 43.2353 39.631 52.2353 50.7385 52.2353C60.428 52.2353 68.5223 45.3529 70.4129 36.2941H64.741C62.9686 42.2941 57.3557 46.7647 50.7385 46.7647Z" fill="#435363"/>
<path d="M40.9308 42C43.4714 44.5294 46.8982 46.0588 50.7385 46.0588V40.2941C48.6116 40.2941 46.5437 39.4706 45.0075 37.9412L40.9308 42Z" fill="#435363"/>
<path d="M36.8542 32.2353C36.8542 34.2353 37.2678 36.1176 38.0358 37.8235L43.3532 35.4706C42.8806 34.4706 42.6443 33.3529 42.6443 32.2353C42.6443 27.7647 46.2483 24.1765 50.7385 24.1765V18.4118C43.0578 18.4118 36.8542 24.5882 36.8542 32.2353Z" fill="#F38B00"/>
<path d="M55.7605 19.3529L53.6926 24.7059C55.406 25.3529 56.824 26.5882 57.7693 28.1765H64.0911C62.7913 24.1176 59.719 20.8823 55.7605 19.3529Z" fill="#435363"/>
<path d="M53.6926 39.7647L55.8196 45.1765C59.7781 43.6471 62.8504 40.3529 64.0911 36.2941H57.7693C56.824 37.8235 55.406 39.0588 53.6926 39.7647Z" fill="#F38B00"/>
<path d="M25.0377 40C24.9195 39.7059 24.8604 39.4118 24.8014 39.0588V39C24.7423 38.7059 24.6832 38.4118 24.565 38.1176C24.506 37.8235 24.4469 37.5294 24.3878 37.1765C24.3878 37.0588 24.3287 36.9412 24.3287 36.8235C24.2696 36.6471 24.2696 36.4118 24.2105 36.2353C24.2105 36.0588 24.1515 35.8823 24.1515 35.7059C23.9742 34.5294 23.9151 33.3529 23.9151 32.1765H18.3614C18.3614 33.4706 18.4205 34.7647 18.5977 36.0588V36.1176C18.6568 36.4706 18.7159 36.8235 18.7159 37.1765C18.7159 37.2941 18.775 37.3529 18.775 37.4706C18.834 37.7647 18.8931 38.0588 18.9522 38.2941C18.9522 38.4706 19.0113 38.5882 19.0704 38.7647C19.1295 39 19.1885 39.2353 19.1885 39.4118C19.2476 39.5882 19.3067 39.8235 19.3067 40C19.3658 40.1765 19.3658 40.3529 19.4249 40.5294C19.484 40.7647 19.543 41 19.6021 41.2353C19.6021 41.3529 19.6612 41.4118 19.6612 41.5294C20.0157 42.7647 20.4884 44 21.0201 45.1765L26.0421 43C25.6876 42 25.3331 41 25.0377 40Z" fill="#435363"/>
<path d="M50.7386 59C43.3533 59 36.6179 56 31.714 51.1765L27.8146 55.0588C33.6638 60.8824 41.758 64.5294 50.6795 64.5294C67.1634 64.5294 80.8115 52.2353 82.8203 36.2941H77.2665C75.3759 49.1176 64.2093 59 50.7386 59ZM50.7386 5.47059C56.765 5.47059 62.3187 7.47059 66.809 10.8235L70.1176 6.41176C64.682 2.35294 58.0057 0 50.7386 0C37.0315 0 25.2741 8.52941 20.5475 20.5294L25.6876 22.5294C29.5871 12.5294 39.3357 5.47059 50.7386 5.47059Z" fill="#F38B00"/>
<path d="M77.3256 28.2353H82.8793C82.2885 23.5882 80.6933 19.1765 78.2118 15.1765L73.5443 18.0588C75.494 21.1765 76.7938 24.5882 77.3256 28.2353Z" fill="#435363"/>
<path d="M71.0629 28.2353H76.6166C75.1396 18.9412 68.7587 11.2941 60.1917 7.94118L58.1829 13C64.7411 15.5294 69.704 21.2353 71.0629 28.2353Z" fill="#F38B00"/>
<path d="M50.7385 11.5882V6.11765C39.6311 6.11765 30.1188 13 26.3375 22.7647L31.4186 24.7647C34.4318 17.0588 41.9353 11.5882 50.7385 11.5882Z" fill="#435363"/>
<path d="M30.0006 32.2353H24.506C24.506 43.1765 31.3595 52.5882 40.99 56.4706L42.9987 51.4118C35.4362 48.3529 30.0006 40.8823 30.0006 32.2353Z" fill="#F38B00"/>
<path d="M50.7385 52.8823V58.3529C63.7957 58.3529 74.6669 48.7647 76.6166 36.2941H71.0628C69.1722 45.7059 60.7825 52.8823 50.7385 52.8823Z" fill="#435363"/>
</svg>

<svg xmlns="http://www.w3.org/2000/svg" width="100" height="100" fill="none"><path fill="#435363" d="M3.06 88.706v-.059c0-6.235 4.726-11.353 11.461-11.353 4.136 0 6.617 1.353 8.685 3.412l-3.072 3.53c-1.713-1.53-3.427-2.471-5.613-2.471-3.722 0-6.38 3.058-6.38 6.823v.06c0 3.764 2.599 6.881 6.38 6.881 2.54 0 4.077-1 5.79-2.588l3.072 3.118C21.138 98.47 18.598 100 14.343 100 7.904 100 3.06 95 3.06 88.706m26.704-11h4.845v8.706h8.922v-8.706h4.844v21.941h-4.844v-8.824h-8.922v8.824h-4.845zm26.41 0h16.898v4.353H61.078v4.53h10.576v4.352H61.078v4.706h12.17V100H56.175zm24.106 0h16.78v4.412H85.123v4.647h10.517v4.412H85.124v8.47H80.28zM50.739 46.765c-8.036 0-14.594-6.53-14.594-14.53s6.558-14.53 14.593-14.53c6.618 0 12.23 4.413 14.003 10.472h5.672c-1.89-9.118-9.985-15.942-19.674-15.942-11.049 0-20.088 8.942-20.088 20 0 11 8.98 20 20.088 20 9.689 0 17.783-6.882 19.674-15.94H64.74c-1.772 6-7.385 10.47-14.002 10.47"/><path fill="#435363" d="M40.93 42c2.541 2.53 5.968 4.059 9.809 4.059v-5.765a8.1 8.1 0 0 1-5.731-2.353z"/><path fill="#F38B00" d="M36.854 32.235c0 2 .414 3.883 1.182 5.589l5.317-2.353a7.6 7.6 0 0 1-.709-3.236c0-4.47 3.604-8.058 8.095-8.058v-5.765c-7.681 0-13.885 6.176-13.885 13.823"/><path fill="#435363" d="m55.76 19.353-2.067 5.353c1.713.647 3.131 1.882 4.076 3.47h6.322a14.06 14.06 0 0 0-8.33-8.823"/><path fill="#F38B00" d="m53.693 39.765 2.127 5.411a13.92 13.92 0 0 0 8.271-8.882H57.77a8.7 8.7 0 0 1-4.076 3.47"/><path fill="#435363" d="M25.038 40c-.119-.294-.178-.588-.237-.941V39c-.059-.294-.118-.588-.236-.882-.059-.294-.118-.589-.177-.942 0-.117-.06-.235-.06-.352-.058-.177-.058-.412-.117-.589 0-.176-.06-.353-.06-.53-.177-1.176-.236-2.352-.236-3.529h-5.554c0 1.295.06 2.589.237 3.883v.059c.059.353.118.706.118 1.058 0 .118.059.177.059.295.059.294.118.588.177.823 0 .177.06.294.118.47.06.236.119.471.119.648.059.176.118.412.118.588.059.176.059.353.118.53l.177.705c0 .118.06.177.06.294.354 1.236.826 2.471 1.358 3.647L26.042 43c-.354-1-.709-2-1.004-3"/><path fill="#F38B00" d="M50.739 59c-7.386 0-14.121-3-19.025-7.824l-3.9 3.883c5.85 5.823 13.944 9.47 22.865 9.47 16.484 0 30.132-12.294 32.141-28.235h-5.553C75.375 49.118 64.208 59 50.738 59m0-53.53c6.026 0 11.58 2 16.07 5.353l3.309-4.411C64.682 2.352 58.006 0 50.738 0c-13.706 0-25.464 8.53-30.19 20.53l5.14 2a26.85 26.85 0 0 1 25.05-17.06"/><path fill="#435363" d="M77.326 28.235h5.553c-.59-4.647-2.186-9.058-4.667-13.058l-4.668 2.882c1.95 3.117 3.25 6.53 3.782 10.176"/><path fill="#F38B00" d="M71.063 28.235h5.554c-1.477-9.294-7.858-16.94-16.425-20.294L58.182 13c6.56 2.53 11.522 8.235 12.88 15.235"/><path fill="#435363" d="M50.739 11.588v-5.47c-11.108 0-20.62 6.882-24.401 16.647l5.08 2c3.014-7.706 10.517-13.177 19.32-13.177"/><path fill="#F38B00" d="M30 32.235h-5.494c0 10.941 6.854 20.353 16.484 24.236l2.009-5.06C35.436 48.354 30 40.883 30 32.236"/><path fill="#435363" d="M50.739 52.882v5.47c13.057 0 23.928-9.587 25.878-22.058h-5.554c-1.89 9.412-10.28 16.588-20.324 16.588"/></svg>
